X:007
T:Balance a Straw TS.007
T:Lads A Bunchum,aka TS.007
T:Wearing of the Green,aka TS.007
T:Tulip,The,aka TS.007
M:C
L:1/8
Q:1/2=60
S:Thomas Sands’ MS,1810,Lincolnshire
R:country dance
O:England;Lincolnshire
N:Notated as written.
C:James Oswald,1747
Z:vmp.Ruairidh Greig, 2011
K:G
GA|B2BBB2d2|”^sic”cBA2AAA2|Bcd2cBc2|BAG2GGG2:|
|:ge|d2ddd2GA|B2BBB2ge|d2ddd2cB|AGFED2B2|
BBB2g2dB|A2AAA2Bc|d2cBc2BA|G2GGG2:|]

